; generated by PrusaSlicer 2.3.3+win64 on 2022-06-18 at 23:11:29 UTC

; 

; external perimeters extrusion width = 0.60mm
; perimeters extrusion width = 0.50mm
; infill extrusion width = 0.50mm
; solid infill extrusion width = 0.50mm
; top infill extrusion width = 0.45mm
; first layer extrusion width = 0.42mm

M73 P0 R28
M73 Q0 S29
M201 X1000 Y1000 Z200 E5000 ; sets maximum accelerations, mm/sec^2
M203 X200 Y200 Z12 E120 ; sets maximum feedrates, mm/sec
M204 P1250 R1250 T1250 ; sets acceleration (P, T) and retract acceleration (R), mm/sec^2
M205 X8.00 Y8.00 Z0.40 E4.50 ; sets the jerk limits, mm/sec
M205 S0 T0 ; sets the minimum extruding and travel feed rate, mm/sec
M107
;TYPE:Custom
M862.3 P "MK3S" ; printer model check
M862.1 P0.4 ; nozzle diameter check
M115 U3.10.1 ; tell printer latest fw version
G90 ; use absolute coordinates
M83 ; extruder relative mode
M104 S230 ; set extruder temp
M140 S85 ; set bed temp
M190 S85 ; wait for bed temp
M109 S230 ; wait for extruder temp
G28 W ; home all without mesh bed level
G80 ; mesh bed leveling
G1 Y-3.0 F1000.0 ; go outside print area
G92 E0.0
G1 X60.0 E9.0 F1000.0 ; intro line
G1 X100.0 E12.5 F1000.0 ; intro line
G92 E0.0
M221 S95

; Don't change E values below. Excessive value can damage the printer.

M907 E538 ; set extruder motor current
G21 ; set units to millimeters
G90 ; use absolute coordinates
M83 ; use relative distances for extrusion
M900 K0.08 ; Filament gcode LA 1.5
M900 K45 ; Filament gcode LA 1.0
;LAYER_CHANGE
;Z:0.2
;HEIGHT:0.2
;BEFORE_LAYER_CHANGE
G92 E0.0
;0.2


M73 Q0 S28
G1 E-1.00000 F2100.000
G1 Z0.200 F10800.000
;AFTER_LAYER_CHANGE
;0.2
G1 Z0.400
G1 X92.791 Y83.522
G1 Z0.200
G1 E1.00000 F2100.000
M204 S1000
;TYPE:Skirt
;WIDTH:0.42
G1 F1200.000
G1 X93.249 Y82.807 E0.02661
G1 X95.518 Y80.460 E0.10235
G1 X96.152 Y80.102 E0.02284
G1 X96.869 Y79.953 E0.02296
G1 X153.015 Y79.762 E1.76042
G1 X153.878 Y79.926 E0.02755
G1 X154.623 Y80.392 E0.02755
G1 X156.861 Y82.746 E0.10185
G1 X157.160 Y83.223 E0.01763
G1 X157.338 Y83.752 E0.01752
G1 X157.388 Y84.239 E0.01536
G1 X157.345 Y100.485 E0.50936
G1 X157.155 Y101.062 E0.01906
G1 X143.833 Y128.691 E0.96173
G1 X143.435 Y129.274 E0.02213
G1 X142.652 Y129.831 E0.03013
G1 X141.712 Y130.032 E0.03013
G1 X108.274 Y130.220 E1.04846
G1 X107.420 Y130.049 E0.02731
G1 X106.688 Y129.584 E0.02720
G1 X106.169 Y128.884 E0.02731
G1 X92.704 Y100.878 E0.97434
G1 X92.612 Y100.235 E0.02036
G1 X92.613 Y84.355 E0.49791
M73 P1 R28
M73 Q1 S28
G1 X92.778 Y83.580 E0.02484
; printing object v2_split_left_glove_box_air_valve_adapter_for_vw_mkiv.stl id:1 copy 0
;WIPE_START
G1 F8640.000
G1 X93.249 Y82.807 E-0.20898
G1 X95.479 Y80.500 E-0.74102
;WIPE_END
G1 E-0.05000 F2100.000
G1 Z0.400 F10800.000
G1 X106.145 Y105.719
G1 Z0.200
G1 E1.00000 F2100.000
;TYPE:Perimeter
G1 F1200.000
G1 X106.486 Y106.660 E0.03137
G1 X106.704 Y107.525 E0.02796
G1 X106.779 Y107.940 E0.01325
G1 X106.878 Y108.917 E0.03077
G1 X106.931 Y109.218 E0.00961
G1 X106.310 Y109.195 E0.01948
G1 X105.781 Y109.210 E0.01659
G1 X105.659 Y107.814 E0.04395
G1 X105.740 Y107.707 E0.00421
G1 X105.951 Y107.315 E0.01395
G1 X106.062 Y107.025 E0.00975
G1 X106.158 Y106.600 E0.01367
G1 X106.189 Y106.269 E0.01040
G1 X106.156 Y105.778 E0.01543
;WIPE_START
G1 F8640.000
G1 X106.486 Y106.660 E-0.21734
G1 X106.704 Y107.525 E-0.20587
G1 X106.779 Y107.940 E-0.09755
G1 X106.878 Y108.917 E-0.22658
G1 X106.931 Y109.218 E-0.07078
G1 X106.360 Y109.196 E-0.13188
;WIPE_END
G1 E-0.05000 F2100.000
G1 Z0.400 F10800.000
G1 X105.284 Y104.108
G1 Z0.200
G1 E1.00000 F2100.000
G1 F1200.000
G1 X104.771 Y103.577 E0.02316
G1 X104.238 Y103.109 E0.02222
G1 X103.719 Y102.719 E0.02037
G1 X103.051 Y102.297 E0.02475
G1 X102.480 Y101.999 E0.02021
G1 X101.892 Y101.747 E0.02006
G1 X101.290 Y101.542 E0.01994
G1 X100.730 Y101.396 E0.01816
G1 X100.110 Y101.284 E0.01974
G1 X99.486 Y101.223 E0.01968
G1 X98.861 Y101.212 E0.01960
G1 X98.241 Y101.252 E0.01946
G1 X97.772 Y101.322 E0.01489
G1 X97.741 Y100.587 E0.02307
G1 X97.661 Y99.952 E0.02005
G1 X98.947 Y100.070 E0.04050
G1 X99.603 Y100.189 E0.02089
G1 X100.246 Y100.354 E0.02083
G1 X100.874 Y100.567 E0.02079
G1 X101.615 Y100.886 E0.02529
G1 X102.078 Y101.128 E0.01637
G1 X102.717 Y101.520 E0.02353
G1 X103.142 Y101.824 E0.01638
G1 X103.772 Y102.346 E0.02563
G1 X104.355 Y102.922 E0.02572
G1 X104.697 Y103.313 E0.01629
G1 X105.251 Y104.058 E0.02909
;WIPE_START
G1 F8640.000
G1 X104.771 Y103.577 E-0.15695
G1 X104.238 Y103.109 E-0.16366
G1 X103.719 Y102.719 E-0.15000
G1 X103.051 Y102.297 E-0.18228
G1 X102.480 Y101.999 E-0.14880
G1 X101.892 Y101.747 E-0.14775
G1 X101.890 Y101.746 E-0.00057
;WIPE_END
G1 E-0.05000 F2100.000
G1 Z0.400 F10800.000
G1 X107.023 Y109.599
G1 Z0.200
G1 E1.00000 F2100.000
;TYPE:External perimeter
G1 F1200.000
G1 X106.306 Y109.572 E0.02247
G1 X105.438 Y109.616 E0.02727
G1 X105.270 Y107.701 E0.06027
G1 X105.423 Y107.502 E0.00785
G1 X105.607 Y107.159 E0.01223
G1 X105.700 Y106.915 E0.00815
G1 X105.785 Y106.540 E0.01206
G1 X105.811 Y106.262 E0.00878
G1 X105.791 Y105.876 E0.01209
G1 X105.739 Y105.602 E0.00877
G1 X105.614 Y105.233 E0.01219
G1 X105.392 Y104.829 E0.01446
G1 X105.047 Y104.404 E0.01717
G1 X104.511 Y103.850 E0.02419
G1 X104.000 Y103.402 E0.02129
G1 X103.505 Y103.030 E0.01944
G1 X102.863 Y102.625 E0.02379
G1 X102.318 Y102.340 E0.01927
G1 X101.757 Y102.099 E0.01916
G1 X101.182 Y101.903 E0.01904
G1 X100.649 Y101.765 E0.01727
G1 X100.058 Y101.658 E0.01882
G1 X99.464 Y101.599 E0.01873
G1 X98.870 Y101.589 E0.01863
G1 X98.281 Y101.627 E0.01848
G1 X97.702 Y101.713 E0.01837
G1 X97.397 Y101.786 E0.00983
G1 X97.393 Y101.055 E0.02292
G1 X97.365 Y100.622 E0.01359
G1 X97.276 Y99.911 E0.02249
G1 X95.502 Y99.911 E0.05560
G1 X95.379 Y99.895 E0.00389
G1 X95.385 Y99.571 E0.01016
G1 X95.589 Y99.534 E0.00650
G1 X97.197 Y99.538 E0.05041
G1 X98.519 Y99.641 E0.04158
G1 X99.002 Y99.697 E0.01524
G1 X99.683 Y99.820 E0.02170
G1 X100.354 Y99.993 E0.02170
G1 X101.010 Y100.214 E0.02171
G1 X101.777 Y100.545 E0.02621
G1 X102.264 Y100.800 E0.01722
G1 X102.926 Y101.206 E0.02435
G1 X103.373 Y101.525 E0.01722
G1 X104.025 Y102.066 E0.02657
G1 X104.630 Y102.664 E0.02666
G1 X104.989 Y103.074 E0.01712
G1 X105.471 Y103.706 E0.02491
G1 X105.772 Y104.162 E0.01711
G1 X106.193 Y104.912 E0.02697
G1 X106.544 Y105.686 E0.02664
G1 X106.848 Y106.551 E0.02877
G1 X107.072 Y107.445 E0.02889
G1 X107.153 Y107.888 E0.01411
G1 X107.252 Y108.865 E0.03080
G1 X107.422 Y109.844 E0.03116
G1 X108.914 Y126.889 E0.53647
G1 X108.889 Y127.390 E0.01575
G1 X108.597 Y127.424 E0.00922
G1 X108.573 Y127.318 E0.00343
G1 X107.028 Y109.659 E0.55578
G1 X107.021 Y109.199 F10800.000
;WIPE_START
G1 F8640.000
G1 X106.306 Y109.572 E-0.16778
G1 X105.438 Y109.616 E-0.20085
G1 X105.270 Y107.701 E-0.44385
G1 X105.423 Y107.502 E-0.05784
G1 X105.586 Y107.198 E-0.07968
;WIPE_END
G1 E-0.05000 F2100.000
G1 Z0.400 F10800.000
G1 X106.716 Y108.436
G1 Z0.200
G1 E1.00000 F2100.000
;TYPE:Solid infill
;WIDTH:0.474475
G1 F1200.000
G1 X106.035 Y107.756 E0.03453
G1 X105.950 Y107.899 E0.00596
G1 X105.987 Y108.318 E0.01509
G1 X106.768 Y109.099 E0.03965
;WIPE_START
G1 F8640.000
G1 X105.987 Y108.318 E-0.25512
G1 X105.950 Y107.899 E-0.09712
G1 X106.035 Y107.756 E-0.03838
G1 X106.716 Y108.436 E-0.22216
;WIPE_END
G1 E-0.38721 F2100.000
G1 Z0.400 F10800.000
G1 X106.316 Y107.274
G1 Z0.200
G1 E1.00000 F2100.000
;TYPE:Gap fill
;WIDTH:0.207829
G1 F1200.000
G1 X106.326 Y106.839 E0.00596
;WIPE_START
G1 F8640.000
G1 X106.316 Y107.274 E-0.10035
;WIPE_END
G1 E-0.89965 F2100.000
G1 Z0.400 F10800.000
G1 X106.090 Y105.539
G1 Z0.200
G1 E1.00000 F2100.000
;WIDTH:0.355659
G1 F1200.000
G1 X105.922 Y105.112 E0.01194
;WIDTH:0.3255
G1 X105.672 Y104.656 E0.01221
G1 X105.401 Y104.256 E0.01136
;WIPE_START
G1 F8640.000
G1 X105.672 Y104.656 E-0.11159
G1 X105.922 Y105.112 E-0.12003
;WIPE_END
G1 E-0.76838 F2100.000
G1 Z0.400 F10800.000
G1 X103.170 Y102.121
G1 Z0.200
G1 E1.00000 F2100.000
;WIDTH:0.131016
G1 F1200.000
G1 X102.569 Y101.745 E0.00520
;WIDTH:0.249208
G1 X101.917 Y101.411 E0.01256
;WIDTH:0.344028
G1 X101.441 Y101.207 E0.01295
;WIPE_START
G1 F8640.000
G1 X101.917 Y101.411 E-0.11947
;WIPE_END
G1 E-0.88053 F2100.000
G1 Z0.400 F10800.000
G1 X100.152 Y100.447
G1 Z0.200
G1 E1.00000 F2100.000
;TYPE:Solid infill
;WIDTH:0.435894
G1 F1200.000
G1 X100.837 Y101.132 E0.03165
G1 X100.154 Y101.005 E0.02269
G1 X99.639 Y100.490 E0.02380
G1 X98.952 Y100.359 E0.02285
G1 X99.537 Y100.944 E0.02702
G1 X98.968 Y100.931 E0.01858
G1 X98.326 Y100.288 E0.02969
G1 X97.985 Y100.261 E0.01118
G1 X98.020 Y100.538 E0.00909
G1 X98.597 Y101.115 E0.02670
;WIPE_START
G1 F8640.000
G1 X98.020 Y100.538 E-0.18868
G1 X97.985 Y100.261 E-0.06426
G1 X98.326 Y100.288 E-0.07903
G1 X98.968 Y100.931 E-0.20979
G1 X99.537 Y100.944 E-0.13132
G1 X98.952 Y100.359 E-0.19096
G1 X99.318 Y100.429 E-0.08596
;WIPE_END
G1 E-0.05000 F2100.000
G1 Z0.400 F10800.000
G1 X119.911 Y106.306
G1 Z0.200
G1 E1.00000 F2100.000
;TYPE:Perimeter
;WIDTH:0.42
G1 F1200.000
G1 X120.038 Y106.465 E0.00637
G1 X120.243 Y106.662 E0.00892
G1 X120.589 Y106.918 E0.01349
G1 X120.829 Y107.053 E0.00864
G1 X121.086 Y107.156 E0.00868
G1 X121.148 Y107.866 E0.02234
G1 X120.624 Y107.942 E0.01659
G1 X120.017 Y108.074 E0.01948
G1 X120.016 Y107.768 E0.00960
G1 X119.915 Y106.366 E0.04406
;WIPE_START
G1 F8640.000
G1 X120.038 Y106.465 E-0.03636
G1 X120.243 Y106.662 E-0.06566
G1 X120.589 Y106.918 E-0.09938
G1 X120.829 Y107.053 E-0.06365
G1 X121.086 Y107.156 E-0.06389
G1 X121.148 Y107.866 E-0.16451
G1 X120.624 Y107.942 E-0.12216
G1 X120.017 Y108.074 E-0.14349
G1 X120.016 Y107.768 E-0.07067
G1 X119.979 Y107.248 E-0.12023
;WIPE_END
G1 E-0.05000 F2100.000
G1 Z0.400 F10800.000
G1 X117.524 Y97.676
G1 Z0.200
G1 E1.00000 F2100.000
G1 F1200.000
G1 X117.106 Y96.874 E0.02836
G1 X116.580 Y95.968 E0.03284
G1 X116.243 Y95.431 E0.01988
G1 X115.351 Y94.149 E0.04897
G1 X114.963 Y93.644 E0.01997
G1 X114.296 Y92.836 E0.03284
G1 X113.593 Y92.059 E0.03286
G1 X113.146 Y91.599 E0.02010
G1 X112.007 Y90.531 E0.04898
G1 X111.518 Y90.113 E0.02015
G1 X110.696 Y89.461 E0.03288
G1 X109.422 Y88.561 E0.04894
G1 X108.877 Y88.212 E0.02027
G1 X107.977 Y87.681 E0.03276
G1 X107.055 Y87.191 E0.03276
G1 X106.469 Y86.906 E0.02042
G1 X105.033 Y86.287 E0.04902
G1 X104.051 Y85.927 E0.03282
G1 X103.431 Y85.723 E0.02044
G1 X102.432 Y85.435 E0.03260
G1 X101.794 Y85.275 E0.02064
G1 X100.267 Y84.965 E0.04884
G1 X99.233 Y84.814 E0.03276
G1 X98.576 Y84.741 E0.02072
G1 X98.039 Y84.701 E0.01688
G1 X97.661 Y84.696 E0.01187
G1 X97.741 Y84.063 E0.01998
G1 X97.770 Y83.608 E0.01431
G1 X97.772 Y83.203 E0.01269
G1 X99.004 Y83.367 E0.03895
G1 X100.029 Y83.558 E0.03270
G1 X100.633 Y83.691 E0.01939
G1 X102.147 Y84.094 E0.04913
G1 X103.628 Y84.588 E0.04894
G1 X105.077 Y85.175 E0.04903
G1 X106.107 Y85.658 E0.03565
G1 X107.481 Y86.397 E0.04892
G1 X108.803 Y87.219 E0.04883
G1 X109.651 Y87.812 E0.03243
G1 X110.136 Y88.176 E0.01902
G1 X111.266 Y89.102 E0.04579
G1 X112.167 Y89.927 E0.03832
G1 X113.250 Y91.040 E0.04868
G1 X114.256 Y92.218 E0.04859
G1 X114.933 Y93.106 E0.03500
G1 X115.798 Y94.384 E0.04840
G1 X116.578 Y95.716 E0.04838
G1 X117.085 Y96.707 E0.03491
G1 X117.499 Y97.621 E0.03147
;WIPE_START
G1 F8640.000
G1 X117.106 Y96.874 E-0.19504
G1 X116.580 Y95.968 E-0.24185
G1 X116.243 Y95.431 E-0.14638
G1 X115.351 Y94.149 E-0.36065
G1 X115.335 Y94.128 E-0.00609
;WIPE_END
G1 E-0.05000 F2100.000
G1 Z0.400 F10800.000
G1 X119.993 Y108.465
G1 Z0.200
G1 E1.00000 F2100.000
;TYPE:External perimeter
G1 F1200.000
G1 X121.541 Y126.170 E0.55725
G1 X121.536 Y126.292 E0.00384
G1 X121.244 Y126.309 E0.00917
G1 X121.132 Y125.820 E0.01575
G1 X119.641 Y108.775 E0.53647
G1 X119.639 Y107.781 E0.03115
G1 X119.527 Y106.219 E0.04912
G1 X119.463 Y105.645 E0.01812
G1 X119.157 Y103.597 E0.06492
G1 X119.041 Y103.028 E0.01820
G1 X118.799 Y102.056 E0.03140
G1 X118.491 Y101.025 E0.03374
G1 X118.295 Y100.445 E0.01920
G1 X117.928 Y99.478 E0.03244
G1 X117.517 Y98.528 E0.03246
G1 X117.252 Y97.972 E0.01930
G1 X116.775 Y97.055 E0.03240
G1 X116.258 Y96.163 E0.03236
G1 X115.929 Y95.639 E0.01939
G1 X115.046 Y94.372 E0.04842
G1 X114.668 Y93.879 E0.01948
G1 X114.010 Y93.083 E0.03237
G1 X113.317 Y92.317 E0.03239
G1 X112.882 Y91.868 E0.01961
G1 X111.755 Y90.812 E0.04843
G1 X111.278 Y90.405 E0.01966
G1 X110.470 Y89.763 E0.03234
M73 Q2 S28
G1 X109.211 Y88.874 E0.04833
G1 X108.680 Y88.534 E0.01978
G1 X107.793 Y88.010 E0.03228
G1 X106.884 Y87.527 E0.03229
M73 P2 R28
G1 X106.312 Y87.249 E0.01994
G1 X104.894 Y86.638 E0.04842
G1 X103.927 Y86.283 E0.03229
G1 X103.320 Y86.084 E0.02002
G1 X102.334 Y85.799 E0.03218
G1 X101.710 Y85.642 E0.02016
G1 X100.202 Y85.337 E0.04825
G1 X99.185 Y85.188 E0.03222
G1 X98.541 Y85.117 E0.02031
G1 X98.023 Y85.078 E0.01631
G1 X97.628 Y85.072 E0.01237
G1 X97.115 Y85.115 E0.01613
G1 X95.806 Y85.116 E0.04107
G1 X95.389 Y85.050 E0.01323
G1 X95.381 Y84.755 E0.00925
G1 X95.502 Y84.739 E0.00384
G1 X97.275 Y84.739 E0.05560
G1 X97.365 Y84.028 E0.02249
G1 X97.393 Y83.595 E0.01359
G1 X97.397 Y82.777 E0.02566
G1 X99.063 Y82.995 E0.05268
G1 X100.104 Y83.188 E0.03320
G1 X100.722 Y83.325 E0.01984
G1 X102.256 Y83.733 E0.04975
G1 X103.758 Y84.234 E0.04967
G1 X105.228 Y84.829 E0.04971
G1 X106.276 Y85.321 E0.03630
G1 X107.670 Y86.070 E0.04961
G1 X109.011 Y86.905 E0.04952
G1 X109.872 Y87.506 E0.03294
G1 X110.369 Y87.879 E0.01948
G1 X111.513 Y88.817 E0.04637
G1 X112.430 Y89.656 E0.03898
G1 X113.528 Y90.786 E0.04940
G1 X114.550 Y91.981 E0.04930
G1 X115.239 Y92.886 E0.03566
G1 X116.117 Y94.183 E0.04912
G1 X116.909 Y95.535 E0.04910
G1 X117.425 Y96.543 E0.03553
G1 X117.892 Y97.575 E0.03551
G1 X118.426 Y98.953 E0.04632
G1 X118.775 Y100.026 E0.03540
G1 X119.050 Y101.029 E0.03259
G1 X119.284 Y102.063 E0.03324
G1 X119.488 Y103.204 E0.03634
G1 X119.732 Y104.960 E0.05561
G1 X119.805 Y105.323 E0.01159
G1 X119.874 Y105.524 E0.00665
G1 X120.085 Y105.920 E0.01409
G1 X120.317 Y106.210 E0.01165
G1 X120.487 Y106.374 E0.00738
G1 X120.794 Y106.601 E0.01197
G1 X120.992 Y106.712 E0.00714
G1 X121.440 Y106.878 E0.01497
G1 X121.556 Y108.206 E0.04177
G1 X120.693 Y108.313 E0.02727
G1 X120.051 Y108.452 E0.02059
G1 X119.595 Y108.510 F10800.000
;WIPE_START
G1 F8640.000
G1 X120.396 Y112.552 E-0.95000
;WIPE_END
G1 E-0.05000 F2100.000
G1 Z0.400 F10800.000
G1 X120.083 Y107.119
G1 Z0.200
G1 E1.00000 F2100.000
;TYPE:Solid infill
;WIDTH:0.424922
G1 F1200.000
G1 X120.771 Y107.806 E0.03090
;WIPE_START
G1 F8640.000
G1 X120.083 Y107.119 E-0.22465
;WIPE_END
G1 E-0.77535 F2100.000
G1 Z0.400 F10800.000
G1 X119.838 Y106.132
G1 Z0.200
G1 E1.00000 F2100.000
;TYPE:Gap fill
;WIDTH:0.26145
G1 F1200.000
G1 X119.798 Y106.004 E0.00245
;WIDTH:0.221005
G1 X119.758 Y105.875 E0.00200
;WIDTH:0.180561
G1 X119.718 Y105.746 E0.00154
;WIDTH:0.140117
G1 X119.678 Y105.617 E0.00109
;WIDTH:0.0996744
G1 X119.665 Y105.566 E0.00025
;WIPE_START
G1 F8640.000
G1 X119.678 Y105.617 E-0.01229
;WIPE_END
G1 E-0.98771 F2100.000
G1 Z0.400 F10800.000
G1 X119.190 Y102.746
G1 Z0.200
G1 E1.00000 F2100.000
;WIDTH:0.135511
G1 F1200.000
G1 X119.027 Y101.995 E0.00592
G1 X118.747 Y100.942 E0.00839
;WIDTH:0.240645
G1 X118.489 Y100.112 E0.01429
G1 X118.112 Y99.064 E0.01830
;WIDTH:0.360194
G1 X117.602 Y97.848 E0.03481
;WIPE_START
G1 F8640.000
G1 X118.112 Y99.064 E-0.30467
;WIPE_END
G1 E-0.69533 F2100.000
G1 Z0.400 F10800.000
G1 X113.481 Y91.638
G1 Z0.200
G1 E1.00000 F2100.000
;WIDTH:0.108615
G1 F1200.000
G1 X113.072 Y91.201 E0.00326
G1 X112.630 Y90.767 E0.00339
;WIDTH:0.202228
G1 X111.971 Y90.129 E0.01214
G1 X111.378 Y89.616 E0.01038
;WIDTH:0.301761
G1 X110.891 Y89.208 E0.01368
G1 X109.912 Y88.462 E0.02650
;WIDTH:0.398881
G1 X109.592 Y88.229 E0.01172
G1 X109.239 Y88.309 F10800.000
;TYPE:Solid infill
;WIDTH:0.421584
G1 F1200.000
G1 X107.954 Y87.024 E0.05723
G1 X107.339 Y86.641 E0.02280
G1 X106.683 Y86.289 E0.02345
G1 X107.503 Y87.109 E0.03652
G1 X106.447 Y86.588 E0.03708
G1 X105.583 Y85.725 E0.03844
G1 X104.964 Y85.434 E0.02155
G1 X104.617 Y85.294 E0.01180
G1 X105.506 Y86.183 E0.03960
G1 X105.138 Y86.024 E0.01261
G1 X104.623 Y85.835 E0.01728
G1 X103.717 Y84.929 E0.04034
G1 X103.530 Y84.854 E0.00635
G1 X102.893 Y84.641 E0.02114
G1 X103.798 Y85.546 E0.04030
